icons/directions.svg

<?xml version="1.0" encoding="UTF-8"?>
<svg width="50" height="50" version="1.1" viewBox="0 0 50 50" xmlns="http://www.w3.org/2000/svg">
<path d="m23.75 5s-1.25 0-1.25 1.25v1.25h-11.25l-5 3.75s-1.25 1.25 0 2.5l5 3.75h11.25v6.25h-12.5c-2.5 0-2.5 2.5-2.5 2.5v5s0 2.5 2.5 2.5h12.5v10s0 1.25 1.25 1.25h2.5c1.25 0 1.25-1.25 1.25-1.25v-10h11.25l5-3.75c1.25-1.25 0-2.5 0-2.5l-5-3.75h-11.25v-6.25h12.5c2.5 0 2.5-2.5 2.5-2.5v-5s0-2.5-2.5-2.5h-12.5v-1.25s0-1.25-1.25-1.25h-2.5z"/>
</svg>

<?xml version="1.0" encoding="UTF-8" standalone="no"?>
<svg
   xmlns:dc="http://purl.org/dc/elements/1.1/"
   xmlns:cc="http://creativecommons.org/ns#"
   xmlns:rdf="http://www.w3.org/1999/02/22-rdf-syntax-ns#"
   xmlns:svg="http://www.w3.org/2000/svg"
   xmlns="http://www.w3.org/2000/svg"
   id="svg4"
   viewBox="0 0 50 50"
   version="1.1"
   width="50"
   height="50">
  <metadata
     id="metadata10">
    <rdf:RDF>
      <cc:Work
         rdf:about="">
        <dc:format>image/svg+xml</dc:format>
        <dc:type
           rdf:resource="http://purl.org/dc/dcmitype/StillImage" />
        <dc:title></dc:title>
      </cc:Work>
    </rdf:RDF>
  </metadata>
  <defs
     id="defs8" />
  <path
     id="path2884"
     d="M 23.75 5 C 23.75 5 22.5 5 22.5 6.25 L 22.5 7.5 L 11.25 7.5 L 6.25 11.25 C 6.25 11.25 5 12.5 6.25 13.75 L 11.25 17.5 L 22.5 17.5 L 22.5 23.75 L 10 23.75 C 7.5 23.75 7.5 26.25 7.5 26.25 L 7.5 31.25 C 7.5 31.25 7.5 33.75 10 33.75 L 22.5 33.75 L 22.5 43.75 C 22.5 43.75 22.5 45 23.75 45 L 26.25 45 C 27.5 45 27.5 43.75 27.5 43.75 L 27.5 33.75 L 38.75 33.75 L 43.75 30 C 45 28.75 43.75 27.5 43.75 27.5 L 38.75 23.75 L 27.5 23.75 L 27.5 17.5 L 40 17.5 C 42.5 17.5 42.5 15 42.5 15 L 42.5 10 C 42.5 10 42.5 7.5 40 7.5 L 27.5 7.5 L 27.5 6.25 C 27.5 6.25 27.5 5 26.25 5 L 23.75 5 z " />
</svg>
